outputs/icons/image/wb_round.svg

<svg xmlns="http://www.w3.org/2000/svg" width="1200" height="1200" fill="none"><g fill="#000" clip-path="url(#a)"><path fill-rule="evenodd" d="M726.215 350.529v499.446l194.125-.585c47.565 2.99 94.77-10.18 134.35-37.47 15.395-13.41 27.495-30.37 35.31-49.5s11.125-39.885 9.665-60.58c.05-24.81-7.965-48.92-22.77-68.505-14.09-19.115-34.225-32.575-56.93-38.06 20.695-7.47 38.475-21.65 50.665-40.4 12.175-19.75 18.32-42.79 17.65-66.164 1.115-20.053-2.8-40.065-11.375-58.112-8.57-18.047-21.515-33.522-37.585-44.939-42.915-26.191-92.52-38.436-142.32-35.131zM904.4 557.215h-60.915l-3.415-114.174H897c19.945-1.673 39.89 3.25 56.93 14.053 7.09 4.836 12.96 11.343 17.12 18.981a56.24 56.24 0 0 1 6.79 24.93 52.9 52.9 0 0 1-3.62 22.735c-2.86 7.2-7.265 13.64-12.89 18.84-16.815 11.37-36.89 16.535-56.93 14.635M840.07 760.39V637.435h82.55a55.46 55.46 0 0 1 24.545 4.11c7.785 3.215 14.785 8.16 20.5 14.485 5.71 6.32 9.995 13.865 12.54 22.085a60.2 60.2 0 0 1 2.19 25.48 52.3 52.3 0 0 1-3.82 22.84c-2.965 7.21-7.5 13.62-13.26 18.735-13.82 10.905-31.005 16.31-48.39 15.22z"/><path d="M561.69 350.561 505.9 663.815l-67.745-313.254H339.1l-68.314 313.254-56.929-313.254H100L203.61 850.01h120.688l63.76-284.565 65.468 284.565h121.259l100.76-499.449z"/></g><defs><clipPath id="a"><path fill="#fff" d="M0 0h1200v1200H0z"/></clipPath></defs></svg>

<svg width="1200" height="1200" viewBox="0 0 1200 1200" fill="none" xmlns="http://www.w3.org/2000/svg"><g clip-path="url(#clip0_1106_3242)"><path fill-rule="evenodd" d="M726.215 350.529V849.975L920.34 849.39C967.905 852.38 1015.11 839.21 1054.69 811.92C1070.085 798.51 1082.185 781.55 1090 762.42C1097.815 743.29 1101.125 722.535 1099.665 701.84C1099.715 677.03 1091.7 652.92 1076.895 633.335C1062.805 614.22 1042.67 600.76 1019.965 595.275C1040.66 587.805 1058.44 573.625 1070.63 554.875C1082.805 535.125 1088.95 512.085 1088.28 488.711C1089.395 468.658 1085.48 448.646 1076.905 430.599C1068.335 412.552 1055.39 397.077 1039.32 385.66C996.405 359.469 946.8 347.224 897 350.529H726.215ZM904.4 557.215H843.485L840.07 443.041H897C916.945 441.368 936.89 446.291 953.93 457.094C961.02 461.93 966.89 468.438 971.05 476.075C975.21 483.712 977.535 492.26 977.84 501.005C978.315 508.77 977.08 516.54 974.22 523.74C971.36 530.94 966.955 537.38 961.33 542.58C944.515 553.95 924.44 559.115 904.4 557.215ZM840.07 760.39V637.435H922.62C930.995 636.925 939.375 638.33 947.165 641.545C954.95 644.76 961.95 649.705 967.665 656.03C973.375 662.35 977.66 669.895 980.205 678.115C982.75 686.34 983.5 695.04 982.395 703.595C982.84 711.41 981.535 719.225 978.575 726.435C975.61 733.645 971.075 740.055 965.315 745.17C951.495 756.075 934.31 761.48 916.925 760.39H840.07ZM561.69 350.561L505.9 663.815L438.155 350.561H339.1L270.786 663.815L213.857 350.561H100L203.61 850.01H324.298L388.058 565.445L453.526 850.01H574.785L675.545 350.561H561.69Z" fill="#1D1E23"/></g><defs><clipPath id="clip0_1106_3242"><path width="24" fill="white" d="M0 0H1200V1200H0V0z"/></clipPath></defs></svg>
